X: 15
T:Bean an Ti ar Lar
M:4/4
L:1/8
S:Tommy Peoples, Donegal (fiddle)
R:Reel
D:From a 70's demo tape
Z:Bernie Stocks
H:The 'D2's  and 'D3's are droned (unison) as much as possible
K:D
B | AGFE D2FD | GEFE D3B | AGFE D2(3.F.F.D (3EDEcA BGEd | 
AGFE D2FD | GEFE DB~B2 | AGFE D2(3.F.F.D (3EDEcA BGEd ||
cdec +A3E3+d | cdec AGEd | cdec (3.A.A.AAG | (3.E.E.EcA BGEd |
cdec +A3E3+d | cdec AGEd | cdeg (3.f.g.aec | A-B{d}BA BcdB || AGFE D4 ||
<end>
<start>
